svgs/midgt.svg

<svg xmlns="http://www.w3.org/2000/svg" viewBox="0 0 192 192"><path d="M105.962 16.5 95.413 49.146s-1.21 4.962-7.612 4.962H30.693l-6.076 20.488h101.264s21.826.814 31.069-21.823c9.243-22.637 13.843-35.476 13.843-35.476l-64.831-.797Zm-19.924 159 10.549-32.646s1.21-4.962 7.612-4.962h57.108l6.076-20.488H66.119s-21.826-.814-31.069 21.823c-9.243 22.637-13.843 35.476-13.843 35.476l64.831.797ZM22.451 96h148.12" fill="none" stroke="#000" stroke-width="12" stroke-linecap="round" stroke-linejoin="round"/></svg>

<svg
    xmlns="http://www.w3.org/2000/svg"
    viewBox="0 0 192 192"
    id="vector">
    <path
        id="path"
        d="M 105.962 16.5 L 95.413 49.146 C 95.413 49.146 94.203 54.108 87.801 54.108 L 30.693 54.108 L 24.617 74.596 L 125.881 74.596 C 125.881 74.596 147.707 75.41 156.95 52.773 C 166.193 30.136 170.793 17.297 170.793 17.297 L 105.962 16.5 Z M 86.038 175.5 L 96.587 142.854 C 96.587 142.854 97.797 137.892 104.199 137.892 L 161.307 137.892 L 167.383 117.404 L 66.119 117.404 C 66.119 117.404 44.293 116.59 35.05 139.227 C 25.807 161.864 21.207 174.703 21.207 174.703 L 86.038 175.5 Z M 22.451 96 L 170.571 96"
        fill="none"
        stroke="#000000"
        stroke-width="12"
        stroke-linecap="round"
        stroke-linejoin="round"/>
</svg>
